priv/static/svgs/icons_new/other-freebet.svg

<svg width="32" height="32" viewBox="0 0 32 32" fill="none" xmlns="http://www.w3.org/2000/svg">
<path d="M27.5 22.375C27.5 23.5486 26.7136 24.5 25.7436 24.5L7.5625 24.5M25.7436 7.5C26.7136 7.5 27.5 8.45139 27.5 9.625L27.5 10.7234C27.5 10.9198 27.3391 11.0751 27.1469 11.1154C26.3497 11.2824 25.75 12.0038 25.75 12.8684C25.75 13.733 26.3497 14.4544 27.1469 14.6215C27.3391 14.6617 27.5 14.8171 27.5 15.0134L27.5 16.9865C27.5 17.1829 27.3391 17.3383 27.1469 17.3785C26.3497 17.5456 25.75 18.267 25.75 19.1316C25.75 19.9962 26.3497 20.7176 27.1469 20.8846C27.3391 20.9249 27.5 21.0802 27.5 21.2766L27.5 22.2632M4.5 22.375C4.5 23.5486 5.28635 24.5 6.25636 24.5L7.99363 24.5M6.25636 7.5C5.28635 7.5 4.5 8.4514 4.5 9.625L4.5 10.7234C4.5 10.9198 4.66089 11.0751 4.85309 11.1154C5.65033 11.2824 6.25 12.0038 6.25 12.8684C6.25 13.733 5.65033 14.4544 4.85309 14.6215C4.66089 14.6617 4.5 14.8171 4.5 15.0134L4.5 16.9865C4.5 17.1829 4.66089 17.3383 4.85309 17.3785C5.65033 17.5456 6.25 18.267 6.25 19.1316C6.25 19.9962 5.65033 20.7176 4.85309 20.8846C4.66089 20.9249 4.5 21.0802 4.5 21.2766L4.5 22.2632M21.7187 23.8289L21.7187 22.4868M21.7187 20.25L21.7187 18.9079M21.7187 16.671L21.7187 15.3289" stroke="black" stroke-linecap="round"/>
<path d="M8.44434 11.6987C8.44434 11.9997 8.57334 12.1631 8.81414 12.1631H8.95174C9.20974 12.1631 9.33874 12.0255 9.33874 11.7589V9.86685H11.2479C11.5231 9.86685 11.6607 9.74645 11.6607 9.50565V9.47125C11.6607 9.24765 11.5317 9.11865 11.2479 9.11865H9.32154V7.34705H11.9187C12.1939 7.34705 12.3315 7.21805 12.3315 6.97725V6.92565C12.3315 6.69345 12.1939 6.56445 11.9187 6.56445H8.91734C8.63354 6.56445 8.44434 6.76225 8.44434 7.06325V11.6987Z" fill="black"/>
<path d="M14.7371 7.88885C14.2125 7.88885 13.8685 8.16405 13.6879 8.67145C13.6879 8.55105 13.6707 8.44785 13.6535 8.36185C13.5675 8.03505 13.3525 7.94905 13.1547 7.94905C12.9827 7.94905 12.8451 8.01785 12.8451 8.04365V11.7589C12.8451 12.0685 12.9999 12.1631 13.2235 12.1631H13.3181C13.5331 12.1631 13.6965 12.0685 13.6965 11.7589V10.3055C13.6965 9.35085 13.9631 8.69725 14.6339 8.69725C14.8661 8.69725 15.0295 8.77465 15.1585 8.87785C15.1757 8.89505 15.4165 8.76605 15.4165 8.43925C15.4165 8.09525 15.1671 7.88885 14.7371 7.88885Z" fill="black"/>
<path d="M15.3351 10.0819C15.3351 11.3719 16.2123 12.2405 17.5195 12.2405C18.0871 12.2405 18.5257 12.0943 18.8267 11.9051C19.1277 11.7159 19.2825 11.4837 19.2825 11.3031C19.2825 10.9419 18.8525 10.8645 18.8353 10.8817C18.6203 11.2515 18.2591 11.5697 17.5367 11.5697C16.8057 11.5697 16.2639 11.1225 16.1435 10.4431C16.1349 10.3915 16.1263 10.3399 16.1263 10.2883H19.1793C19.3771 10.2883 19.4373 10.2195 19.4373 10.0389V9.97005C19.4373 8.73165 18.6461 7.88885 17.4507 7.88885C16.2295 7.88885 15.3351 8.82625 15.3351 10.0819ZM18.6117 9.71205H16.1349C16.2381 9.02405 16.7627 8.53385 17.4421 8.53385C18.1301 8.53385 18.5687 8.99825 18.6117 9.71205Z" fill="black"/>
<path d="M19.7795 10.0819C19.7795 11.3719 20.6567 12.2405 21.9639 12.2405C22.5315 12.2405 22.9701 12.0943 23.2711 11.9051C23.5721 11.7159 23.7269 11.4837 23.7269 11.3031C23.7269 10.9419 23.2969 10.8645 23.2797 10.8817C23.0647 11.2515 22.7035 11.5697 21.9811 11.5697C21.2501 11.5697 20.7083 11.1225 20.5879 10.4431C20.5793 10.3915 20.5707 10.3399 20.5707 10.2883H23.6237C23.8215 10.2883 23.8817 10.2195 23.8817 10.0389V9.97005C23.8817 8.73165 23.0905 7.88885 21.8951 7.88885C20.6739 7.88885 19.7795 8.82625 19.7795 10.0819ZM23.0561 9.71205H20.5793C20.6825 9.02405 21.2071 8.53385 21.8865 8.53385C22.5745 8.53385 23.0131 8.99825 23.0561 9.71205Z" fill="black"/>
</svg>

<svg width="32" height="32" viewBox="0 0 32 32" fill="none" xmlns="http://www.w3.org/2000/svg">
  <symbol id="item" viewBox="0 0 32 32" stroke-width="1" fill="none">
    <path d="M27.5 22.375c0 1.174-.786 2.125-1.756 2.125H7.563m18.18-17c.97 0 1.757.951 1.757 2.125v1.098c0 .197-.16.352-.353.392a1.78 1.78 0 0 0-1.397 1.753c0 .865.6 1.586 1.397 1.753.192.04.353.196.353.392v1.973c0 .197-.16.352-.353.392a1.78 1.78 0 0 0-1.397 1.754c0 .864.6 1.586 1.397 1.753.192.04.353.195.353.392v.986m-23 .112c0 1.174.786 2.125 1.756 2.125h1.738m-1.738-17c-.97 0-1.756.951-1.756 2.125v1.098c0 .197.16.352.353.392a1.78 1.78 0 0 1 1.397 1.753c0 .865-.6 1.586-1.397 1.753-.192.04-.353.196-.353.392v1.973c0 .197.16.352.353.392a1.78 1.78 0 0 1 1.397 1.754c0 .864-.6 1.586-1.397 1.753-.192.04-.353.195-.353.392v.986m17.219 1.566v-1.342m0-2.237v-1.342m0-2.237v-1.342" stroke="currentColor" stroke-linecap="round"/><path d="M8.444 11.699c0 .3.13.464.37.464h.138c.258 0 .387-.138.387-.404V9.867h1.909c.275 0 .413-.12.413-.361V9.47c0-.223-.13-.352-.413-.352H9.322V7.347h2.597c.275 0 .412-.129.412-.37v-.051c0-.233-.137-.362-.412-.362H8.917c-.283 0-.473.198-.473.5v4.635ZM14.737 7.889c-.524 0-.869.275-1.05.782 0-.12-.016-.223-.034-.31-.085-.326-.3-.412-.498-.412-.172 0-.31.069-.31.095v3.715c0 .31.155.404.378.404h.095c.215 0 .379-.095.379-.404v-1.454c0-.954.266-1.608.937-1.608.232 0 .396.078.524.18.018.018.258-.111.258-.438 0-.344-.249-.55-.679-.55ZM15.335 10.082c0 1.29.877 2.159 2.184 2.159.568 0 1.007-.147 1.308-.336.3-.19.455-.421.455-.602 0-.361-.43-.439-.447-.421-.215.37-.576.688-1.298.688-.731 0-1.273-.447-1.393-1.127a.948.948 0 0 1-.018-.155h3.053c.198 0 .258-.069.258-.25V9.97c0-1.238-.79-2.081-1.986-2.081-1.221 0-2.116.937-2.116 2.193Zm3.277-.37h-2.477c.103-.688.628-1.178 1.307-1.178.688 0 1.127.464 1.17 1.178ZM19.78 10.082c0 1.29.877 2.159 2.184 2.159.568 0 1.006-.147 1.307-.336.301-.19.456-.421.456-.602 0-.361-.43-.439-.447-.421-.215.37-.577.688-1.299.688-.73 0-1.273-.447-1.393-1.127a.948.948 0 0 1-.017-.155h3.053c.198 0 .258-.069.258-.25V9.97c0-1.238-.792-2.081-1.987-2.081-1.221 0-2.116.937-2.116 2.193Zm3.276-.37H20.58c.104-.688.628-1.178 1.308-1.178.688 0 1.126.464 1.17 1.178Z" fill="currentColor"/>
  </symbol>
</svg>
